X:1
T:Infedelta di Donna-Angioletta
T:Giovanni Stefani
T:Source : Affetto amorosi-Canzonette ad una voce sola---Venetia---A.Vincenti---1621. Editor : André Vierendeels (18/11/15). 
T:Notes : Original clefs : C4, F4 Alfabetto et intavolatura per chitarra Spagnola m 1 in Bas, "re" notated as half note in original print Terza impressione (first print 1618) 
T:Angioletta-Infideltà di donna
C:Giovanni Stefani
%%score 1 { ( 2 3 ) | 4 }
L:1/8
Q:1/4=75
M:4/4
K:F
V:1 treble-8 nm="Tenor" snm="T"
V:2 treble nm="BC" snm="BC"
V:3 treble 
V:4 bass 
V:1
 G2 A2 BA c>B | A2 G2 B2 c2 | dc_ed c2 B2- |[M:2/4] B4 :: c2 d2 |[M:4/4] _ed f>e d2 c2 | %6
w: An- gio- let- ta trop- po'in|fret- ta, tu mi|la- sci'et a- ban- do- ni,||e fur-|ti- va, e la- sci- va,|
w: An- zi pu- re con im-|pu- re, vo- glie|se- gui stuol d'a- man- ti,||e ti|lo- di, e ten go- di,|
w: Cor in- gra- to, dis- pie-|ta- to, que- sta|dai cru- da mer- ce- de,||a chi|t'a- ma'e te sol bra- ma,|
w: An- gio- let- ta, sim- pli-|cet- ta, ah tu|sol- chi'un a- mar in fi-|do,|dal tuo|sde- gno il tuo le- gno,|
w: Rie- di, rie- di ah non|ve- di, ch'en sa-|ra da l'on- de'ab- sor- to,|_|se no|tor- ni a'i sog- gior- ni|
 F2 G2 AG c>B | A2 G2- G4 :| %8
w: a no- vel- lo'a- mor ti|do- ni. _|
w: non a- mar- ne'al- cun fra|ran- ti. _|
w: di ser- vir con pi- ra|fe- de. _|
w: spin- to fia la- ce- ro'al|li- do. _|
w: del tran- quil- lo'e fi- do|por- to. _|
V:2
 B2 A2 G2 G2 | ^F2 G2 G2 A2 | B2 c2 A2 F2- |[M:2/4] F4 :: A2 A2 |[M:4/4] c2 c2 =B2 c2 | %6
 A2 c2 d2 c2 | d2 =B6 :| %8
V:3
 D2 ^F2 D2 E2 | D2 =B,2 D2 C2 | F2 G2 F2 D2- |[M:2/4] D4 :: F2 F2 |[M:4/4] G2 A2 D2 E2 | %6
 C2 G2 ^F2 E2 | ^F2 G6 :| %8
V:4
 G,2 D,2 G,,2 C,2 | D,2 G,,2 G,2 F,2 | B,2 _E,2 F,2 B,,2- |[M:2/4] B,,4 :: F,2 D,2 | %5
[M:4/4] C,2 F,,2 G,,2 C,2 | F,2 E,2 D,2 C,2 | D,2 G,,2- G,,4 :| %8

